!!!!SEGMENT: pl-wtm--r-1369_stefani-jozef--mazur.krn
!!!cenid: 18xx:2410
!!!COM: Stefani, Józef
!!!COM-rismid: pe30024097
!!!CDT: 1800/04/16-1876/03/19
!!!CNT: Polish
!!!OTL: Mazur
!!!PDT:
!!!AGN: Secular; Mazurka
!!!SMS-siglum: PL-Wtm
!!!SMS-shelfmark: R 1369
!!!SMS-shelfwork: W
!!!SMS-variant:
!!!SMS-altvar:
!!!NIFC-rismid: 1001117215
!!!URL-scan: http://repozytorium.nifc.pl/skany/pl-wtm-nut--r1369
!!!ONB-nifc:
**kern	**kern	**dynam
*part1	*part1	*part1
*staff2	*staff1	*
*	*I"Fortepian	*
*>[A,A,B,B,C,D,D,E,E,A,A,B,B,F,G,G,A,A,B,B]	*>[A,A,B,B,C,D,D,E,E,A,A,B,B,F,G,G,A,A,B,B]	*>[A,A,B,B,C,D,D,E,E,A,A,B,B,F,G,G,A,A,B,B]
*>A	*>A	*>A
*clefF4	*clefG2	*
*k[f#]	*k[f#]	*
*G:	*G:	*
*M3/8	*M3/8	*
*all\right	*all\right	*
=1	=1	=1
*^	*	*
*	*	*Xtuplet	*
!	!	!LO:TX:a:t=[segno]	!LO:DY:rj
4.D/	8D\L	(24g#X/LL	p
.	.	24a/)	.
.	.	24cc'/JJ	.
.	8c 8F#\	8ee'\L	.
.	8cJ 8F#\	(16dd\L	.
.	.	16cc\JJ)	.
*v	*v	*	*
=2	=2	=2
!LO:TX:t=P:problem:mixed beam	!	!
8GG/L	16.b/LL	.
.	32f#/JJk	.
8B 8G 8D\	4g/	.
8BJ 8G 8D\	.	.
=3	=3	=3
*^	*	*
4.D/	8D\L	24g#X/LL	.
.	.	24a/	.
.	.	24cc/JJ	.
.	8c 8F#\	8ee\L	.
.	8cJ 8F#\	16dd\L	.
.	.	16cc\JJ	.
*v	*v	*	*
=4	=4	=4
8GG/	16b\LL	.
.	32r	.
.	(32aa\JJk	.
4B 4G 4D\	4gg\)	.
!!LO:LB:g=original
=5	=5	=5
!	!	!LO:DY:rj
8D 8DD/	24gg#XLL 24g#X'\	f
.	24aa 24a'\	.
.	24cccJJ 24cc'\	.
8cL 8F# 8D\	8eeeL 8ee'\	.
8cJ 8F# 8D\	16dddL 16dd'\	.
.	16cccJJ 16cc'\	.
=6	=6	=6
8GG/	16.bbLL 16.b\	.
.	32ff#\JJk|	.
8BL 8G 8E\	8gg\L	.
8AJ 8G 8E-X\	8cc#X\J	.
=7	=7	=7
8BnL 8G 8D\	24dd\LL	.
.	24bb\	.
.	24gg\JJ	.
8B 8G 8D\	(16eee\LL	.
.	32ddd\JJk)	.
.	32r	.
8cJ 8F# 8D\	(16cccn\LL	.
.	32aa\JJk)	.
.	32r	.
=8	=8	=8
16B 16G\	16gg\	.
16r	16r	.
4B 4G\	4g/	.
!!LO:LB:g=original
=9:|!|:	=9:|!|:	=9:|!|:
*>B	*>B	*>B
*^	*	*
4.C#X/	8C#\L	16.b/LL	.
.	.	32a/JJk	.
.	8A 8G 8E\	8b/L	.
.	8AJ 8G 8E\	8a/J	.
=10	=10	=10	=10
4.D/	8D\L	16.e#X/LL|	.
.	.	32f#/JJk|	.
.	8A 8F#\	8c#X/L|	.
.	8AJ 8F#\	8d/J|	.
=11	=11	=11	=11
4.C#X/	8C#\L	16.b/LL	.
.	.	32a/JJk	.
.	.	(8qcc#X/	.
.	8A 8G 8E\	8b/L)	.
.	8AJ 8G 8E\	8a/J	.
=12	=12	=12	=12
4.D/	8D\L	(24e#X/LL	.
.	.	24f#/)	.
.	.	24A/JJ	.
.	8A 8F#\	8d/L	.
.	8AJ 8F#\	8f#/J	.
=13	=13	=13	=13
4.C#X/	8C#\L	16.b/LL	.
.	.	32a/JJk	.
.	8A 8G 8E\	8b-X/L	.
.	8AJ 8G 8E\	8a/J	.
!!LO:LB:g=original
=14	=14	=14	=14
4.D/	8D\L	16.e#X/LL	.
.	.	32f#/JJk	.
.	8A 8F#\	8c#X/L	.
.	8AJ 8F#\	8d/J	.
=15	=15	=15	=15
.	.	(8qcc#X/	.
4.AA/	8AA\L	16.b/LL)	.
.	.	32a/JJk|>	.
.	8G 8E\	8b'>/L	.
.	8GJ 8E\	8cc#'>/J	.
*v	*v	*	*
=16	=16	=16
16F# 16D\	16dd\	.
16r	16r	.
4F# 4FF#^>/	4ccn 4a 4d^>/	.
=17	=17	=17
*^	*	*
!	!	!	!LO:DY:rj
4.D/	8D\L	24g#X/LL	p
.	.	24a/	.
.	.	24cc/JJ	.
.	8c 8F#\	8ee\L	.
.	8cJ 8F#\	16dd\L	.
.	.	16cc\JJ	.
*v	*v	*	*
=18	=18	=18
!LO:TX:t=P:problem:mixed beam	!	!
8GG/L	16.b/LL	.
.	32f#/JJk	.
8B 8G 8D\	4g/	.
8BJ 8G 8D\	.	.
!!LO:LB:g=original
=19	=19	=19
*^	*	*
4.D/	8D\L	24g#X/LL	.
.	.	24a/	.
.	.	24cc/JJ	.
.	8c 8F#\	8ee\L	.
.	8cJ 8F#\	16dd\L	.
.	.	16cc\JJ	.
*v	*v	*	*
=20	=20	=20
8GG/	16b\LL	.
.	32r	.
.	(32aa\JJk	.
4B 4G 4D\	4gg\)	.
=21	=21	=21
!	!	!LO:DY:rj
8D 8DD/	24gg#XLL 24g#X'\	f
.	24aa 24a'\	.
.	24cccJJ 24cc'\	.
8cL 8F# 8D\	8eeeL 8ee'\	.
8cJ 8F# 8D\	16dddL 16dd'\	.
.	16cccJJ 16cc'\	.
=22	=22	=22
8GG/	16.bbLL 16.b\	.
.	32ff#\JJk	.
8BL 8G 8E\	8gg\L	.
8AJ 8G 8E-X\	8cc#X\J	.
!!LO:LB:g=original
=23	=23	=23
8BnL 8G 8D\	24dd\LL|	.
.	(24bb\	.
.	24gg\JJ)	.
8c 8F# 8D\	(16eee\LL	.
.	32ddd\JJk)	.
.	32r	.
8cJ 8F# 8D\	(16ccc\LL	.
.	32aa\JJk)	.
.	32r	.
=24	=24	=24
16B 16G\	16gg\	.
16r	16r	.
!LO:TX:b:t=fine	!LO:TX:t=P:problem:fermata na kresce taktowej	!
4B 4G\	4g;/	.
=25:|!	=25:|!	=25:|!
*>C	*>C	*>C
*	*cue	*
4.ryy	16.e/LL	.
.	32f#/JJk	.
.	8g/L	.
.	8g#X/J	.
=26	=26	=26
4.ryy	16.b/LL	.
.	32a/JJk	.
.	8dd/L	.
.	8d/J	.
*	*Xcue	*
!!LO:PB:g=original
=27!|:	=27!|:	=27!|:
*>D	*>D	*>D
*k[]	*k[]	*
*^	*	*
!	!	!LO:TX:a:i:t=Trio Imo	!LO:DY:rj
16CC/LL	4.CC\	16.f#XLL 16.d#X/|	mf
(<16C/	.	.	.
.	.	32gJJk 32e/|	.
16GG/	.	8eL 8c/|	.
16C/	.	.	.
16GG/	.	8fnJ 8dn/|	.
16C/JJ)	.	.	.
*v	*v	*	*
=28	=28	=28
*tremolo	*	*
(16CC/LL	8g 8e'/	.
16C/	.	.
.	(8qb 8qg/	.
16CC/	8aL 8f^/)	.
16C/	.	.
16CC/	8gJ 8e'/	.
16C/JJ)	.	.
*Xtremolo	*	*
=29	=29	=29
*^	*	*
16CC/LL	4.CC\	16.f#XLL 16.d#X/	.
16C/	.	.	.
.	.	32gJJk 32e/	.
16GG/	.	8eL 8c/	.
16C/	.	.	.
16GG/	.	8fnJ 8dn/	.
16C/JJ	.	.	.
*v	*v	*	*
=30	=30	=30
*tremolo	*	*
(16CC/LL	8g 8e'/	.
16C/	.	.
.	(8qb 8qg/	.
16CC/	8aL 8f^/)	.
16C/	.	.
16CC/	8gJ 8e'/	.
16C/JJ)	.	.
*Xtremolo	*	*
!!LO:LB:g=original
=31	=31	=31
*	*tuplet	*
!	!LO:TUP:a:problem:klamra łukowa, łuczek zamiast numeru	!LO:DY:rj
8GG/	24b\LL	f
.	24dd\	.
.	24ff\JJ	.
8BL 8G 8F 8D\	8aa\L	.
8BJ 8G 8F 8D\	16gg\L	.
.	16ff\JJ	.
=32	=32	=32
8c 8C\	8ee\	.
8A 8AA/	8ccc 8ee 8cc^<\	.
8A-X 8AA-X/	8ff#X 8ee-X 8cc^<\	.
=33	=33	=33
8G 8GG\	(32aa\LLL	.
.	32gg\	.
.	32een\	.
.	32cc\JJJ	.
8fL 8d 8G\	8g/L)	.
8fJ 8d 8G\	8b/J	.
=34	=34	=34
16e 16c\	(32dd\KLL	.
.	16cc\JJ)	.
16r	.	.
.	32r	.
8c 8C\	8ccc 8ee 8cc\	.
8r	8r	.
=35:|!|:	=35:|!|:	=35:|!|:
*>E	*>E	*>E
16.A\LL	16.a/LL	p
32A\JJk	32a/JJk	.
8c\L	8cc/L	.
16B\L	16b/L	.
16A\JJ	16a/JJ	.
!!LO:LB:g=original
=36	=36	=36
*Xtuplet	*Xtuplet	*
!	!LO:TUP:a:problem:klamra łukowa	!
24A\LL	24a/LL	.
24G#X\	24g#X/	.
24B\JJ	24b/JJ	.
4E\	4e/	.
=37	=37	=37
!	!	!LO:DY:rj
16.ELL 16.EE/	16.eeLL 16.g#X 16.e/	f
32EJJk 32EE/	32eeJJk 32g# 32e/	.
8EL 8EE/	8eeL 8g# 8e/	.
8G#XJ 8GG#X/	8ddJ 8b 8e/	.
=38	=38	=38
8AL 8AA\	8ccL 8a 8e/	.
8B 8BB\	8g#X 8e 8d/	.
8cJ 8C\	8aJ 8e/	.
=39	=39	=39
16.Gn\LL	16.gn/LL	p
32G\JJk	32g/JJk	.
8B\L	8b/L	.
16A\L	16a/L	.
16G\JJ	16g/JJ	.
=40	=40	=40
*tuplet	*	*
!LO:TUP:a:problem:klamra łukowa, łuczek zamiast numeru	!	!
*	*tuplet	*
!	!LO:TUP:b:problem:klamra łukowa, łuczek zamiast numeru	!
24G\LL	24g/LL	.
24F#X\	24f#X/	.
24A\JJ	24a/JJ	.
4D\	4d/	.
=41	=41	=41
!	!	!LO:DY:rj
16.DLL 16.DD/	16.ddLL 16.f#X 16.d/	f
32DJJk 32DD/	32ddJJk 32f# 32d/	.
8DL 8DD/	8ddL 8f# 8d/	.
8F#XJ 8FF#X/	8ccJ 8a 8d/	.
!!LO:LB:g=original
=42	=42	=42
8GL 8GG\	8bL 8g 8d/	.
8A 8AA\	8f#X 8d 8c/	.
8BJ 8BB\	8gJ 8d/	.
=43	=43	=43
*^	*	*
16CC/LL	4.CC\	16.f#XLL 16.d#X/	mf
16C/	.	.	.
.	.	32gJJk 32e/	.
16GG/	.	8eL 8c/	.
16C/	.	.	.
16GG/	.	8fnJ 8dn/	.
16C/JJ	.	.	.
*v	*v	*	*
=44	=44	=44
*tremolo	*	*
(16CC/LL	8g 8e/	.
16C/	.	.
.	(8qb 8qg/	.
16CC/	8aL 8f^/)	.
16C/	.	.
16CC/	8gJ 8e'/	.
16C/JJ)	.	.
*Xtremolo	*	*
=45	=45	=45
*^	*	*
16CC/LL	4.CC\	16.f#XLL 16.d#X/	.
16C/	.	.	.
.	.	32gJJk 32e/	.
16GG/	.	8eL 8c/	.
16C/	.	.	.
16GG/	.	8fnJ 8dn/	.
16C/JJ	.	.	.
*v	*v	*	*
=46	=46	=46
*tremolo	*	*
(16CC/LL	8g 8e/	.
16C/	.	.
.	(8qb 8qg/	.
16CC/	8aL 8f^/)	.
16C/	.	.
16CC/	8gJ 8e/	.
16C/JJ)	.	.
*Xtremolo	*	*
!!LO:LB:g=original
=47	=47	=47
*	*Xtuplet	*
!	!	!LO:DY:rj
8GG/	24b\LL	f
.	24dd\	.
.	24ff\JJ	.
8BL 8G 8F 8D\	8aa\L	.
8BJ 8G 8F 8D\	16gg\L	.
.	16ff\JJ	.
=48	=48	=48
8c 8C\	8ee\	.
8A 8AA\	8ccc 8ee 8cc^<\	.
8A-X 8AA-X\	8ff#X 8ee-X 8cc^<\	.
=49	=49	=49
8G 8GG\	(32aa\LLL	.
.	32gg\	.
.	32een\	.
.	32cc\JJJ	.
8fL 8d 8G\	8g/L)	.
8fJ 8d 8G\	8b/J	.
=50	=50	=50
16e 16c\	32dd\KLL	.
.	16cc\JJ	.
16r	.	.
.	32r	.
8c 8C\	8ccc 8ee 8cc\	.
!	!LO:TX:b:i:t=d'al Segno\nal fine\ne poi Trio. 2.o	!
!	!LO:TX:a:t=[segno]	!
8r	8r	.
!!LO:PB:g=original
=51:|!	=51:|!	=51:|!
*>F	*>F	*>F
*k[f#]	*k[f#]	*
*tremolo	*	*
!	!LO:TX:a:i:t=Trio 2do	!
8BL 8G 8E\	16.e/LL	.
.	32f#/JJk	.
8B 8G 8E\	8g/L	.
8BJ 8G 8E\	16f#/L	.
.	16e/JJ	.
*Xtremolo	*	*
=52	=52	=52
8AL 8E\	16.d#X/LL	.
.	32f#/JJk	.
!	!LO:TX:t=P:problem:tryl bez akcydencji	!
8A 8E\	8cT/L	.
8GJ 8E\	8B/J	.
=53	=53	=53
*tremolo	*	*
8BL 8G 8E\	16.e/LL	.
.	32f#/JJk	.
8B 8G 8E\	8g/L	.
8BJ 8G 8E\	16f#/L	.
.	16e/JJ	.
*Xtremolo	*	*
=54	=54	=54
8AL 8E\	16.d#X/LL	.
.	32f#/JJk	.
!	!LO:TX:t=P:problem:tryl bez akcydencji	!
8A 8E\	8cT/L	.
8GJ 8E\	8B/J	.
=55	=55	=55
*^	*	*
4.D/	8D\L	24f#/LL	.
.	.	24a/	.
.	.	24cc/JJ	.
.	8c 8A 8F#\	8ee\L	.
.	8cJ 8A 8F#\	16dd\L	.
.	.	16cc\JJ	.
*v	*v	*	*
!!LO:LB:g=original
=56	=56	=56
!LO:TX:t=P:problem:mixed beam	!	!
8GG/L	16.b\LL	.
.	32ff#\K	.
8B 8G 8D\	16.gg\	.
.	32ee\JK	.
8BJ 8G 8D\	8dd\J	.
=57	=57	=57
*^	*	*
4.AA/	8AA\L	24cc#X\LL	.
.	.	24ee\	.
.	.	24gg\JJ	.
.	8G 8E\	(8bb\L	.
.	8GJ 8E\	16.aa\L)	.
.	.	32cc#X\JJk|	.
*v	*v	*	*
=58	=58	=58
16F# 16D\	16dd\	.
16r	16r	.
8D 8DD/	8ddd 8ff# 8dd\	.
8r	8r	.
=59!|:	=59!|:	=59!|:
*>G	*>G	*>G
*^	*	*
4.D#X/	8D#\L	16b\	.
.	.	16r	.
.	8B 8A 8F#\	8ccT\L	.
.	8BJ 8A 8F#\	8b\J	.
=60	=60	=60	=60
4.E/	8E\L	24b/LL	.
.	.	24f#/	.
.	.	24g/JJ	.
!	!	!LO:TX:t=P:problem:mixed beam	!
.	8B 8G\	8e/L	.
.	8BJ 8G\	8ee\J	.
!!LO:LB:g=original
=61	=61	=61	=61
4.BB/	8BB\L	24d#X/LL	.
.	.	24f#/	.
.	.	24a/JJ	.
.	8B 8F# 8D#X\	8cc/L	.
.	8BJ 8F# 8D#\	16b/L	.
.	.	16a/JJ	.
=62	=62	=62	=62
.	.	(8qa/	.
4.E/	8E\L	16.g/LL)	.
.	.	32f#/JJk	.
.	8B 8G\	4e/	.
.	8BJ 8G\	.	.
=63	=63	=63	=63
4.F#/	8F#\L	16dd\	.
.	.	16r	.
.	.	(8qff#/	.
.	8d 8A\	8ee\L)	.
.	8dJ 8A\	8dd\J	.
=64	=64	=64	=64
4.G/	8G\L	24dd/LL	.
.	.	24a#X/	.
.	.	24b/JJ	.
!	!	!LO:TX:t=P:problem:mixed beam	!
.	8d 8B\	8g/L	.
.	8dJ 8B\	8gg\J	.
=65	=65	=65	=65
!	!	!LO:TUP:b:problem:klamra łukowa	!
4.D/	8D\L	24f#/LL	.
.	.	24a/	.
.	.	24cc/JJ	.
.	8c 8A\	8ee\L	.
.	8cJ 8A\	(16dd\L	.
.	.	16f#\JJ)	.
*v	*v	*	*
=66	=66	=66
16B 16G\	16g/	.
16r	16r	.
.	(8qff#/	.
8B 8G\	8gg\)	.
16BLL 16G\	(16d/LL	.
16BJJ 16A 16F#\	16d#X/JJ	.
!!LO:LB:g=original
=67	=67	=67
*tremolo	*	*
!	!LO:TX:t=P:problem:brak zakończenia łuku	!
8BL 8G 8E\	16.e/LL)	.
.	32f#/JJk	.
8B 8G 8E\	8g/L	.
8BJ 8G 8E\	16f#/L	.
.	16e/JJ	.
*Xtremolo	*	*
=68	=68	=68
8AL 8E\	16.d#X^/LL	.
.	32f#/JJk	.
!	!LO:TX:t=P:problem:tryl bez akcydencji	!
8A 8E\	(8cT/L	.
8GJ 8E\	8B/J)	.
=69	=69	=69
*tremolo	*	*
8BL 8G 8E\	16.e/LL	.
.	32f#/JJk	.
8B 8G 8E\	8g/L	.
8BJ 8G 8E\	16f#/L	.
.	16e/JJ	.
*Xtremolo	*	*
=70	=70	=70
8AL 8E\	16.d#X^/LL	.
.	32f#/JJk	.
!	!LO:TX:t=P:problem:tryl bez akcydencji	!
8A 8E\	(8cT/L	.
8GJ 8E\	8B/J)	.
=71	=71	=71
*^	*	*
!	!	!LO:TUP:b:problem:klamra łukowa	!
4.D/	8D\L	24f#/LL	.
.	.	24a/	.
.	.	24cc/JJ	.
.	8c 8A 8F#\	8ee\L	.
.	8cJ 8A 8F#\	16dd\L	.
.	.	16cc\JJ	.
*v	*v	*	*
=72	=72	=72
!LO:TX:t=P:problem:mixed beam	!	!
8GG/L	16.b\LL	.
.	32ff#\K	.
8B 8G 8D\	16.gg\	.
.	32ee\JJk	.
8BJ 8G 8D\	8dd\	.
!!LO:LB:g=original
=73	=73	=73
*^	*	*
!	!	!LO:TUP:a:problem:klamra łukowa	!
4.AA/	8AA\L	24cc#X\LL	.
.	.	24ee\	.
.	.	24gg\JJ	.
.	8G 8E\	(8bb\L	.
.	8GJ 8E\	16.aa\L)	.
.	.	32cc#X\JJk|	.
*v	*v	*	*
=74	=74	=74
16F# 16D\	16dd\	.
16r	16r	.
8D 8DD/	8ddd 8ff# 8dd\	.
!	!LO:TX:b:i:t=d'al Segno al fine	!
8r	8r	.
=:|!	=:|!	=:|!
*-	*-	*-
!!!system-decoration: {(s1,s2)}
!!!RDF**kern: > = above
!!!RDF**kern: < = below
!!!RDF**kern: | = vertical stroke
!!!ENC: Andrzej Kubiczek
!!!END: 2021-06-20
!!!ENC: Andrzej Kubiczek
!!!END: 2021-06-16
